X:100
T:Month of August, The
M:2/4
L:1/8
B:Thompson's Compleat Collection of 200 Favourite Country Dances, vol. 2 (London, 1765)
Z:Transcribed and edited by Flynn Titford-Mock, 2007
Z:abc's:AK/Fiddler's Companion
K:A
Acec | aedc | fgaf | ec"tr"BA | Acec | fgaf | geB^d | e2E2 :|
|: egbg | aedc | fdcB | ecBA | defd | cdec | dbBg | a2A2 :|

